files/resources/svgs/general/o-chat-bubble-bottom-center.svg

<svg width="24" height="24" viewBox="0 0 24 24" fill="none" xmlns="http://www.w3.org/2000/svg">
<path d="M2.25 12.7593C2.25 14.3604 3.37341 15.754 4.95746 15.987C6.02548 16.144 7.10495 16.2659 8.19464 16.3513C8.66142 16.388 9.08828 16.6324 9.348 17.022L12 21L14.652 17.0221C14.9117 16.6325 15.3386 16.388 15.8053 16.3514C16.895 16.2659 17.9745 16.1441 19.0425 15.9871C20.6266 15.7542 21.75 14.3606 21.75 12.7595V6.74056C21.75 5.13946 20.6266 3.74583 19.0425 3.51293C16.744 3.17501 14.3926 3 12.0003 3C9.60776 3 7.25612 3.17504 4.95747 3.51302C3.37342 3.74593 2.25 5.13956 2.25 6.74064V12.7593Z" stroke="#0F172A" stroke-width="1.5" stroke-linecap="round" stroke-linejoin="round"/>
</svg>

<svg xmlns="http://www.w3.org/2000/svg" fill="none" viewBox="0 0 24 24" stroke-width="1.5" stroke="currentColor" aria-hidden="true">
  <path stroke-linecap="round" stroke-linejoin="round" d="M2.25 12.76c0 1.6 1.123 2.994 2.707 3.227 1.068.157 2.148.279 3.238.364.466.037.893.281 1.153.671L12 21l2.652-3.978c.26-.39.687-.634 1.153-.67 1.09-.086 2.17-.208 3.238-.365 1.584-.233 2.707-1.626 2.707-3.228V6.741c0-1.602-1.123-2.995-2.707-3.228A48.394 48.394 0 0012 3c-2.392 0-4.744.175-7.043.513C3.373 3.746 2.25 5.14 2.25 6.741v6.018z"/>
</svg>
